modules/boxicons-solid/icons/phone-incoming.svg

<svg xmlns="http://www.w3.org/2000/svg" width="24" height="24" viewBox="0 0 24 24"><path d="M15.121 7.465L13 5.344V11h5.656l-2.121-2.121 5.172-5.172-1.414-1.414zm-.821 6.529l-1.66 1.66c-.578-.109-1.735-.471-2.926-1.66-1.193-1.193-1.553-2.354-1.661-2.926l1.661-1.66.701-.701L5 3.293l-.701.701-1 1a.996.996 0 0 0-.291.649c-.015.25-.302 6.172 4.291 10.766 4.006 4.006 9.024 4.299 10.407 4.299.201 0 .326-.006.357-.008a.994.994 0 0 0 .65-.291l1-1 .697-.697-5.414-5.414-.696.696z"/></svg>

<svg xmlns="http://www.w3.org/2000/svg" width="24" height="24" viewBox="0 0 24 24" viewBox="0 0 24 24"><path d="M15.121 7.465L13 5.344 13 11 18.656 11 16.535 8.879 21.707 3.707 20.293 2.293zM14.3 13.994l-1.66 1.66c-.578-.109-1.735-.471-2.926-1.66-1.193-1.193-1.553-2.354-1.661-2.926l1.661-1.66.701-.701L5 3.293 4.299 3.994l-1 1C3.125 5.168 3.022 5.398 3.008 5.643c-.015.25-.302 6.172 4.291 10.766 4.006 4.006 9.024 4.299 10.407 4.299.201 0 .326-.006.357-.008.246-.014.477-.117.65-.291l1-1 .697-.697-5.414-5.414L14.3 13.994z"/></svg>
